!!!!SEGMENT: pl-kc--40102-iii-1-saf--002-021_zielenski-mikolaj--communiones-totius-anni-in-conceptione-b-m-v-beata-viscera.krn
!!!cenid: 16xx:1552
!!!COM: Zieleński, Mikołaj
!!!COM-rismID: pe30013481
!!!CDT: <1611->1611
!!!CNT: Polish
!!!GTL: Communiones totius anni
!!!OTL: In Conceptione B. M. V./Beata viscera
!!!OMV: 021
!!!PDT: 1611
!!!AGN:
!!!YEC: Copyright 2022 Narodowy Instytut Fryderyka Chopina (https://polishscores.org)
!!!YEM: License CC-BY-4.0 (https://creativecommons.org/licenses/by/4.0)
!!!SMS-siglum: PL-Kc
!!!SMS-shelfmark: 40102 III/1 Saf.
!!!SMS-shelfwork: 002-021 G
!!!SMS-variant:
!!!SMS-altvar:
!!!NIFC-rismSourceID: 990069887
!!!NIFC-rismChildID: 990069887
!!!NIFC-islandoraID: none
!!!URL-pdf-islandora:
!!!URL-scan: https://cyfrowe.mnk.pl/dlibra/publication/24235/edition/23926/content?ref=desc @EN{Scan on The National Museum in Krakow Website} @PL{Skany w portalu Biblioteka Cyfrowa Muzeum Narodowego w Krakowie}
!!!IIIF:
!!!ONB-nifc: UWAGA: str. 55. Numer w źródle: 22. Uwaga: W xml metrum 2/1 do źródłowego C| i odpowiednio 3/1 do 3/2
!!!AIN: 4 organ
!!!key:
**kern	**kern	**kern	**kern
*group1	*group1	*group1	*group1
*part4	*part3	*part2	*part1
*staff4	*staff3	*staff2	*staff1
*I""Organo	*I""Organo	*I""Organo	*I""Organo
*I''org	*I''org	*I''org	*I''org
*Iorgan	*Iorgan	*Iorgan	*Iorgan
*ICklav	*ICklav	*ICklav	*ICklav
*clefF3	*clefC3	*clefC2	*clefG2
*k[]	*k[]	*k[]	*k[]
*C:	*C:	*C:	*C:
*M2/1	*M2/1	*M2/1	*M2/1
*met(C|)	*met(C|)	*met(C|)	*met(C|)
=1	=1	=1	=1
!LO:TX:a:t=Idem Alio Concerto Trium vocum. Communio. 27.	!	!LO:TX:a:t=Beata viſcera.	!LO:TX:a:t=In conceptione B M. V. Dux voces.
00r	00r	0r	1g
.	.	.	2cc\
.	.	.	2dd\
=2-	=2-	=2-	=2-
.	.	1c	2ee\
.	.	.	2ee\
.	.	2f\	1dd
.	.	2g\	.
=3	=3	=3	=3
00r	0r	2a\	2cc\
.	.	2a\	2.ff\
.	.	2g\	.
.	.	.	4ee\
.	.	2.cc\	4ee\
.	.	.	8dd\
.	.	.	8cc\
=4-	=4-	=4-	=4-
.	1G	.	2dd\
.	.	8b\	.
.	.	8a\	.
.	.	2b\	2dd\
.	2c/	2cc\	2ee\
.	2d\	4b\	4dd\
.	.	4a\	4cc\
=5	=5	=5	=5
0r	2e\	4g\	4b/
.	.	4f#X\	4a/
.	2e\	4g\	4b/
.	.	4e/	4cc\
.	1d	2fny\	4dd\
.	.	.	8cc\
.	.	.	8b\
.	.	2.f\	4a/
.	.	.	4b/
=6-	=6-	=6-	=6-
1C	2.c/	.	2cc\
.	.	4e/	.
.	.	2g\	2ee\
.	4B/	.	.
2F/	2A/	2a\	2.dd\
2G\	2B/	4g\	.
.	.	4f\	4dd\
*custos:A	*custos:c	*custos:g	*custos:cc
!!LO:LB:g=original
=7	=7	=7	=7
2.A\	2c/	2g\	4cc\
.	.	.	4dd\
.	1c	4f\	4ee\
4A\	.	4e/	4ff\
1G	.	2g\	2.gg\
.	2B/	2f\	.
.	.	.	4ff\
=8-	=8-	=8-	=8-
2r	2c/	2e/	2ee\
2G\	2B/	2g\	2dd\
[>1c	4c/	2.g\	2.ee\
.	4d\	.	.
.	4e\	.	.
.	4f\	4f\	4dd\
=9	=9	=9	=9
2c\]	4g\	2e/	4cc\
.	4a\	.	4a/
2B\	1g	2d/	2.dd\
*lig	*	*	*
1A	.	2e/	.
.	.	.	4cc\
.	2f#X\	4d/	2.cc\
.	.	4c/	.
=10-	=10-	=10-	=10-
*col	*	*	*
2.G\	1g	1d	.
.	.	.	8b/
.	.	.	8a/
.	.	.	2b/
*Xlig	*	*	*
4G\	.	.	.
*Xcol	*	*	*
!LO:SIC:v:o=2D/	!	!	!
2C/	2g\	2e/	2cc\
2c\	2e\	2g\	2ee\
=11	=11	=11	=11
2c\	2e\	2g\	2ee\
2A\	2a\	2cc\	2ee\
2.B\	1.d	2b\	2.dd\
.	.	2g\	.
4c\	.	.	8cc\
.	.	.	8b\
=12-	=12-	=12-	=12-
2d\	.	4f#X\	4a/
.	.	2g\	4g/
2D/	2d\	.	2a/
.	.	4f#X\	.
2.G\	4d\	[y1g	2b/
.	4c/	.	.
.	4B/	.	[y2dd\
4F/	4A/	.	.
=13	=13	=13	=13
!	!	!LO:N:xstem:cue:vis=4	!LO:N:xstem:cue
2E/	2B/	2g\]	4dd\]
.	.	.	8cc\
.	.	.	8b\
4D/	1e	1g	2.cc\
4C/	.	.	.
0G	.	.	.
.	.	.	8b/
.	.	.	8a/
.	4d\	2g\	4b/
.	4c/	.	4cc\
=14-	=14-	=14-	=14-
.	2B/	1g	2dd\
.	2.c/	.	2ee\
1G	.	2.g\	1dd
.	8B/	.	.
.	8A/	.	.
.	2B/	.	.
.	.	4f\	.
=15	=15	=15	=15
1C	2.c/	2e/	4cc\
.	.	.	4g/
.	.	2.e/	4cc\
.	4G/	.	4dd\
1r	4c/	.	4ee\
.	4d\	4f\	8dd\
.	.	.	8cc\
.	4e\	4g\	4b/
.	4c/	4e/	2ee\
=16-	=16-	=16-	=16-
2r	2f\	2a\	.
.	.	.	4dd\
4r	4.c/	2g\	2ee\
4C/	.	.	.
.	8G/	.	.
4F/	4A/	2f\	2dd\
4G\	4B/	.	.
2A\	2c/	4e/	4r
.	.	[<4e/	4cc\
=17	=17	=17	=17
1G	2B/	4e/]	4ee\
.	.	8d/	4ff\
.	.	8c/	.
.	4r	4B/	4.gg\
.	4G/	4d/	.
.	.	.	8ff\
1r	4c/	4e/	4ee\
.	4d\	4f\	4dd\
!	!	!	!LO:N:vis=4
.	2e\	2g\	2cc#X\
=18-	=18-	=18-	=18-
2r	2d\	2a\	1dd
4r	4G/	2b\	.
4G\	2d\	.	.
4F/	.	2a\	1r
4D/	4d\	.	.
4E/	4G/	4.g\	.
4C/	[<4c/	.	.
.	.	16f\	.
.	.	16e\	.
=19	=19	=19	=19
2G\	4c/]	2d/	1r
.	4B/	.	.
4C/	4.c/	4.e/	.
4c\	.	.	.
.	8d\	8f\	.
2c\	2e\	2g\	4r
.	.	.	2cc\
2A\	2c/	2a\	.
.	.	.	4cc\
=20-	=20-	=20-	=20-
2.d\	2d\	2f#X\	2a/
.	2f#X\	2a\	2.dd\
4c\	.	.	.
2B\	2g\	2d/	.
.	.	.	4cc\
2G\	2g\	[y2g\	2b/
=21	=21	=21	=21
!	!	!LO:N:xstem:cue	!
2d\	2d\	4g\]	2a/
.	.	8f#X\	.
.	.	8e\	.
2D/	1d	2f#\	2a/
1G	.	2.g\	1b
.	2B/	.	.
.	.	4d/	.
=22-	=22-	=22-	=22-
4r	4.c/	4.e/	4r
4c\	.	.	4ee\
.	8c/	8e/	.
4B\	4d\	4f#X\	4dd\
4G\	4e\	4g\	4b/
4A\	4c/	4e/	2cc\
4F/	4A/	4fny\	.
4G\	4B/	4d/	4b/
4E/	4c/	4e/	4a/
=23	=23	=23	=23
4F/	4A/	4c/	2a/
4D/	8d\	4f\	.
.	8c/	.	.
4E/	8B/	2e/	1g
.	8G/	.	.
4C/	2c/	.	.
2G\	.	2d/	.
.	4B/	.	.
2C/	4.c/	4.e/	4r
.	.	.	4cc\
.	16B/	16d/	.
.	16A/	16c/	.
=24-	=24-	=24-	=24-
4r	8G/	4d/	4b/
.	8A/	.	.
4G\	4B/	4e/	4g/
4F/	4c/	2f\	4.a/
4D/	4d\	.	.
.	.	.	8b/
2.A\	2e\	2e\	4cc\
.	.	.	4dd\
.	2a\	[<2cc\	4ee\
4B\	.	.	4dd\
*custos:c	*custos:g	*custos:cc	*custos:ee
!!LO:LB:g=original
=25	=25	=25	=25
4c\	1g	2cc\]	4ee\
4c\	.	.	4ff\
2G\	.	2b\	2gg\
2d\	2r	2a\	2ff#X\
2G\	4r	2b\	4.gg\
.	4d\	.	.
.	.	.	8ffny\
=26-	=26-	=26-	=26-
0r	4c/	4cc\	8ee\
.	.	.	8dd\
.	4A/	4c/	4ee\
.	4.B/	4d/	4.dd\
.	.	4g\	.
.	8c/	.	16cc\
.	.	.	16b\
.	2d\	4f#X\	4a/
.	.	2g\	4g/
.	2D/	.	2a/
.	.	4f#X\	.
=27	=27	=27	=27
2r	4G/	2g\	2b/
.	4A/	.	.
2G\	4B/	2.d/	2b/
.	4c/	.	.
2G\	2d\	.	2b/
.	.	4d/	.
2E/	2G/	2g\	2ee\
=28-	=28-	=28-	=28-
2.A\	1c	1e	4ee\
.	.	.	4dd\
.	.	.	4cc\
4G\	.	.	4b\
2F/	2f\	2a\	4cc\
.	.	.	4a/
4E/	[<2f\	2a\	[<2dd\
4D/	.	.	.
=29	=29	=29	=29
1A	2f\]	1a	2dd\]
.	4e\	.	4cc#X\
.	4d\	.	4b/
2.AA/	4e\	2.a\	4cc#X\
.	4f\	.	2dd\
.	2e\	.	.
4AA/	.	4g\	4cc#X\
=30-	=30-	=30-	=30-
1D	2.d\	4f#X\	2dd\
.	.	4e/	.
.	.	2f#X\	2a/
.	4c/	.	.
2r	4B/	[y1g	2.b/
.	4c/	.	.
2G\	2d\	.	.
.	.	.	4ccny\
=31	=31	=31	=31
!	!	!LO:N:xstem:cue:vis=4	!
2G\	2.B/	2g\]	2dd\
2E/	.	2g\	2.ee\
.	4B/	.	.
*lig	*	*	*
1C	4c/	1g	.
.	4d\	.	4dd\
.	4e\	.	2cc\
.	4c/	.	.
=32-	=32-	=32-	=32-
1.G	2d\	2g\	2b/
.	1B	1d	4g/
.	.	.	4a/
.	.	.	4b/
.	.	.	4cc\
*Xlig	*	*	*
4F/	4A/	2d/	4dd\
4E/	4G/	.	4ee\
=33	=33	=33	=33
1.D	2A/	0d	4ff#X\
.	.	.	4dd\
.	2G/	.	2.gg\
.	1A	.	.
.	.	.	8ff#X\
.	.	.	8ee\
2D/	.	.	2ff#\
=34-	=34-	=34-	=34-
2.G\	1.B	1d	2gg\
.	.	.	2dd\
4F\	.	.	.
2.E/	.	[y1g	2ee\
.	[>2G/	.	[<2gg\
4D/	.	.	.
=35	=35	=35	=35
!	!	!LO:N:xstem:cue:vis=4	!
1C	2G/]	2g\]	2gg\]
.	2c/	2g\	4ff\
.	.	.	4ee\
1.G	2B/	2g\	4dd\
.	.	.	4g/
.	2c/	4f\	4cc\
.	.	4e/	2cc\
=36-	=36-	=36-	=36-
.	1d	2d/	.
.	.	.	8b/
.	.	.	8a/
2G\	.	2g\	2b/
1Cl	1cl	1el	1ccl
==	==	==	==
*-	*-	*-	*-
!!!system-decoration: *
!!!RDF**kern: > = above
!!!RDF**kern: < = below
!!!RDF**kern: l = terminal long
!!!ENC: Andrzej Gręziak
!!!END: 2021-12-21
!!!ENC: Andrzej Kubiczek
!!!END: 2021-12-22
